!!!!SEGMENT: pl-kk--kk-i-2--004-002_moulu-pierre--missa-i-alma-redemptoris-mater-gloria.krn
!!!cenid: 16xx:1594
!!!COM: Moulu, Pierre
!!!COM-rismID: pe30016304
!!!CDT: ~1484-~1550
!!!CNT: French
!!!OPR: Missa I [Alma redemptoris mater]
!!!OTL: Gloria
!!!OMV: 002
!!!PDT:
!!!AGN: Sacred; Mass
!!!SMS-siglum: PL-Kk
!!!SMS-shelfmark: Kk.I.2
!!!SMS-shelfwork: 004-002 M
!!!NIFC-rismSourceID: 300258020
!!!NIFC-islandoraID: pl-kk:750
!!!URL-pdf-islandora: https://repozytorium.nifc.pl/islandora/object/pl-kk%3A750/datastream/PDF/view
!!!URL-scan: https://polish.musicsources.pl/pl/lokalizacje/galeria/rekopisy/5828 @EN{Scan on Polish Music Sources Website} @PL{Skany w portalu Dziedzictwo Muzyki Polskiej w otwartym dostępie}
!!!ONB-nifc: Części mszy: Kyrie, Gloria, Credo, Sanctus, Agnus Dei; skany: C: 0006-0007; A: 0106-0107; T: 0210-0211; B: 0310-0311;
!!!AIN: 1 alto 1 bass 1 soprn 1 tenor
!!!key:
**kern	**text	**kern	**text	**kern	**text	**kern	**text
*part4	*part4	*part3	*part3	*part2	*part2	*part1	*part1
*staff4	*staff4	*staff3	*staff3	*staff2	*staff2	*staff1	*staff1
*I"BASVS	*	*I"TENOR	*	*I"ALTVS	*	*I"DISCANTVS	*
*I'B	*	*I'T	*	*I'A	*	*I'S	*
*Ibass	*	*Itenor	*	*Ialto	*	*Isoprn	*
*ICvox	*	*ICvox	*	*ICvox	*	*ICvox	*
*clefF3	*	*clefC3	*	*clefC3	*	*clefG2	*
*k[b-]	*	*k[b-]	*	*k[b-]	*	*k[b-]	*
*F:	*	*F:	*	*F:	*	*F:	*
*M2/1	*	*M2/1	*	*M2/1	*	*M2/1	*
*met(c|)	*	*met(c|)	*	*met(c|)	*	*met(c|)	*
=1-	=1-	=1-	=1-	=1-	=1-	=1-	=1-
*all\right	*	*all\right	*	*all\right	*	*all\right	*
!	!	!	!	!	!	!LO:TX:t=P:problem=większość rozdzielaczy słów w S i A to zaznaczenie podziału metrycznego na 2/1	!
1.F	Et	1.F	Et	1.f	Et	2f/	Et
.	.	.	.	.	.	2f/	in
.	.	.	.	.	.	2.a/	ter-
*	*	*	*	*2\right	*	*	*
!LO:TX:t=P:problem=kreska pseudotaktowa	!	!LO:TX:t=P:problem=kreska pseudotaktowa	!	!LO:TX:t=P:problem=kreska pseudotaktowa	!	!	!
2F/	in	2F/	in	2f\	in	.	.
!	!	!	!	!	!	!LO:TX:t=P:problem=kreska pseudotaktowa	!
.	.	.	.	.	.	4b-/	-ra
=2-	=2-	=2-	=2-	=2-	=2-	=2-	=2-
1.F	ter-	2.A/	ter-	2f\	ter-	1.cc	pax
.	.	.	.	4e\	-ra	.	.
.	.	4G/	.	4d\	.	.	.
.	.	4A/	-ra	2c/	pax	.	.
.	.	4B-/	.	.	.	.	.
!	!	!	!	!LO:TX:t=P:problem=kreska pseudotaktowa	!	!	!
2E/	-ra	1c\,<	.	2e\	.	2cc/,<	.
=3-	=3-	=3-	=3-	=3-	=3-	=3-	=3-
1D	.	.	.	1f	ho-	2dd/	ho-
.	.	2B-/	.	.	.	1ff	.
!LO:TX:t=P:problem=kreska pseudotaktowa	!	!LO:TX:t=P:problem=kreska pseudotaktowa	!	!	!	!	!
1C	pax	1c	pax	1g,<	.	.	.
*	*	*	*	*	*	*2\right	*
!	!	!	!	!	!	!LO:TX:t=P:problem=kreska pseudotaktowa	!
.	.	.	.	.	.	2ee\	.
=4-	=4-	=4-	=4-	=4-	=4-	=4-	=4-
1.F	.	2r,<	.	2.f\	-(mi-	2.ff\	-mi-
.	.	2c/	ho-	.	.	.	.
.	.	.	.	4g\	-n)i-	4ee\	.
*	*	*2\right	*	*	*	*	*
!	!	!	!	!LO:TX:t=P:problem=kreska pseudotaktowa	!	!	!
.	.	2.f\	-mi-	1a	-bus	2dd/	-ni-
!	!	!	!	!	!	!LO:TX:t=P:problem=kreska pseudotaktowa	!
2F/	ho-	.	.	.	.	2cc/	-bus
.	.	4e\,<	.	.	.	.	.
=5-	=5-	=5-	=5-	=5-	=5-	=5-	=5-
*2\right	*	*	*	*	*	*	*
2G\	-mi-	2d\,<	-ni-	2r	.	2r	.
!LO:TX:t=P:problem=kreska pseudotaktowa	!	!	!	!	!	!	!
2A\	.	1f	-bus	2c/	bo-	1a	bo-
1B-	.	.	.	2d/	.	.	.
.	.	4e\	bo-	2e/,<	-ne	2g/	-ne
!	!	!LO:TX:t=P:problem=kreska pseudotaktowa	!	!	!	!	!
.	.	4d\	.	.	.	.	.
=6-	=6-	=6-	=6-	=6-	=6-	=6-	=6-
2A\	.	2c/,<	-ne	4f\	vo-	2a/	vo-
.	.	.	.	4c/	.	.	.
!	!	!	!	!	!	!LO:TX:t=P:problem=kreska pseudotaktowa	!
2B-\	.	1d	vo-	1f	-lun-	2f/	-lun-
1G	-ni-	.	.	.	.	1g,<	-ta-
!	!	!	!	!LO:TX:t=P:problem=kreska pseudotaktowa	!	!	!
.	.	2B-/,<	-lu(n)-	2e\,<	.	.	.
=7-	=7-	=7-	=7-	=7-	=7-	=7-	=7-
!LO:TX:t=P:problem=kreska pseudotaktowa	!	!	!	!	!	!LO:TX:t=P:problem=kreska pseudotaktowa	!
0F	-buſ	2c/,<	-ta-	2.f\	-ta-	1a	-t(i)s
!	!	!LO:TX:t=P:problem=kreska pseudotaktowa	!	!	!	!	!
.	.	2F/	-t(i)ſ	.	.	.	.
.	.	.	.	4g\	.	.	.
!	!	!	!	!LO:TX:t=P:problem=kreska pseudotaktowa	!	!	!
.	.	2r	.	1a	-t(i)ſ	1cc,<	Lau-
!	!	!LO:TX:t=P:problem=kreska pseudotaktowa	!	!	!	!	!
.	.	2c/	Lau-	.	.	.	.
=8-	=8-	=8-	=8-	=8-	=8-	=8-	=8-
1F	lau-	2f\,<	-da-	2r	.	2cc/	-da-
.	.	2f\	-m(us)	2a\	Lau-	2cc/	-m(u)s
2B-\	.	2d/	te	2.f\	-da-	1dd,<	te
!LO:TX:t=P:problem=kreska pseudotaktowa	!	!	!	!	!	!	!
2B-\	-da-	2e\	be-	.	.	.	.
!	!	!	!	!LO:TX:t=P:problem=kreska pseudotaktowa	!	!	!
.	.	.	.	4g\	-mus	.	.
=9-	=9-	=9-	=9-	=9-	=9-	=9-	=9-
2A,<\	-mus	2f\,<	-ne-	1a	te	2cc/	be-
*	*	*custos:d	*	*	*	*custos:b	*
!	!	!	!	!	!	!LO:TX:t=P:problem=kreska pseudotaktowa	!
2F/	.	2f\	-di-	.	.	2a/	-ne-
!	!	!LO:PB:g=original	!	!	!	!LO:LB:g=original	!
2B-\	te	1d,<	-ci-	2f\	.	1b-,<	-di-
*	*	*	*	*custos:e	*	*	*
2B-\	be-	.	.	2d/,<	be-	.	.
!	!	!	!	!LO:LB:g=original	!	!	!
=10-	=10-	=10-	=10-	=10-	=10-	=10-	=10-
2A\	-ne-	2c/	-mus	2e\	-ne-	2cc/	-ci-
4G\	-di-	1d	.	1f	-di-	1a	-mvs
4F/	-ci-	.	.	.	.	.	.
*custos:F	*	*	*	*	*	*	*
!LO:TX:t=P:problem=kreska pseudotaktowa	!	!	!	!	!	!	!
1G	-m(us)	.	.	.	.	.	.
.	.	4c/	te	2e\,<	-ci-	2g/,<	.
.	.	4B-/,<	.	.	.	.	.
!LO:PB:g=original	!	!	!	!	!	!	!
=11-	=11-	=11-	=11-	=11-	=11-	=11-	=11-
!	!	!LO:TX:t=P:problem=kreska pseudotaktowa	!	!	!	!LO:TX:t=P:problem=kreska pseudotaktowa	!
0F	te	1c	.	2f\	-mvs	1a	te
.	.	.	.	4e\	.	.	.
!	!	!	!	!LO:TX:t=P:problem=kreska pseudotaktowa	!	!	!
.	.	.	.	4d\	.	.	.
.	.	2f\	a-	1c,<	te	2r	.
.	.	2f\,<	-do-	.	.	2cc/,<	A-
=12-	=12-	=12-	=12-	=12-	=12-	=12-	=12-
2r	.	1e	-ra-	1g	a-	2cc/	-do-
!	!	!	!	!	!	!LO:TX:t=P:problem=kreska pseudotaktowa	!
1c	a-	.	.	.	.	2cc/	-ra-
.	.	1d,<	-mns	2.f\	-do-	1dd,<	-m(us)
!LO:TX:t=P:problem=kreska pseudotaktowa	!	!	!	!	!	!	!
2B-\	-do-	.	.	.	.	.	.
.	.	.	.	4g\,<	-ra-	.	.
=13-	=13-	=13-	=13-	=13-	=13-	=13-	=13-
2c\	-ra-	2c/	.	2e\	-mus	2ee\	te
!	!	!LO:TX:t=P:problem=kreska pseudotaktowa	!	!LO:TX:t=P:problem=kreska pseudotaktowa	!	!	!
2c\	-mus	2e/	te	2g\	.	2cc\	glo-
!LO:TX:t=P:problem=kreska pseudotaktowa	!	!	!	!	!	!	!
1F	te	2d/	glo-	1a,<	te	2ff\	-ri-
!	!	!	!	!	!	!LO:TX:t=P:problem=kreska pseudotaktowa	!
.	.	8c/L	-ri-	.	.	2ff\	-fi-
.	.	8d/	.	.	.	.	.
.	.	8e/	-fi-	.	.	.	.
!	!	!LO:TX:t=P:problem=kreska pseudotaktowa	!	!	!	!	!
.	.	8f/J	.	.	.	.	.
=14-	=14-	=14-	=14-	=14-	=14-	=14-	=14-
2r	.	2.g\	-ca-	2g\	gl(o-	2.ee\	-ca-
2c\	glo-	.	.	2.e\	-r)i-	.	.
.	.	4f\	-mus	.	.	4dd\	.
2B-\	.	2d/	.	.	.	2cc\	.
.	.	.	.	4d\	.	.	.
!LO:TX:t=P:problem=kreska pseudotaktowa	!	!LO:TX:t=P:problem=kreska pseudotaktowa	!	!	!	!	!
2B-\	-ri-	2f\	.	1g\	-fi-	2.dd\,<	.
=15-	=15-	=15-	=15-	=15-	=15-	=15-	=15-
2c\	-fi-	2e\	.	.	.	.	.
.	.	.	.	.	.	4cc\	.
!	!	!	!	!LO:TX:t=P:problem=kreska pseudotaktowa	!	!	!
2A\	-ca-	2c/	te	2f\	-ca-	1cc	.
1G	-mns	1d,<	.	1g,<	-mns	.	.
.	.	.	.	.	.	2b-/,<	-mus
=16-	=16-	=16-	=16-	=16-	=16-	=16-	=16-
!LO:TX:t=P:problem=kreska pseudotaktowa	!	!LO:TX:t=P:problem=kreska pseudotaktowa	!	!LO:TX:t=P:problem=kreska pseudotaktowa	!	!LO:TX:t=P:problem=kreska pseudotaktowa	!
1C	te	1c	.	0e	te	0cc	te
2r	.	2r	.	.	.	.	.
2C/	GRa-	2G/,<	Gra-	.	.	.	.
=17-	=17-	=17-	=17-	=17-	=17-	=17-	=17-
2C/	-ci-	2G/	-ti-	2r	.	2r	.
!	!	!LO:TX:t=P:problem=kreska pseudotaktowa	!	!	!	!	!
2C/	-as	2G/	-as	2c/	Gra-	2cc\	Gra-
2.F/	a-	2A/	a-	2c/	-ti-	2cc\	-ci-
!	!	!	!	!LO:TX:t=P:problem=kreska pseudotaktowa	!	!	!
.	.	1c\,<	.	2c/	-as	2cc\	-as
4E/	-gi-	.	.	.	.	.	.
=18-	=18-	=18-	=18-	=18-	=18-	=18-	=18-
1D	-mus	.	.	2d\	a-	1f	a-
.	.	2B-/	-gi-	1f	.	.	.
1C	ti-	1.c,<	-mns	.	.	2g/	-gi-
!	!	!	!	!LO:TX:t=P:problem=kreska pseudotaktowa	!	!	!
.	.	.	.	2e\	-gi-	2g/,<	-mus
!	!	!	!	!	!	!	!
=19-	=19-	=19-	=19-	=19-	=19-	=19-	=19-
*	*	*	*	*	*	*custos:f	*
!	!	!	!	!	!	!LO:TX:t=P:problem=kreska pseudotaktowa	!
!LO:TX:t=P:problem=kreska pseudotaktowa	!	!	!	!	!	!	!
0F	-bi	.	.	2.f\	-m(u)s	1a	ti-
.	.	2A/	ti-	.	.	.	.
.	.	.	.	4e\	ti-	.	.
!	!	!LO:TX:t=P:problem=kreska pseudotaktowa	!	!	!	!!!LO:LB:g=original	!
.	.	1A	-bi	2d\	-bi	2f/	-bi
*	*	*	*	*custos:f	*	*	*
!	!	!	!	!LO:TX:t=P:problem=kreska pseudotaktowa	!	!	!
.	.	.	.	2c/	.	2cc\,<	prop-
!	!	!	!	!LO:LB:g=original	!	!	!
=20-	=20-	=20-	=20-	=20-	=20-	=20-	=20-
*	*	*custos:A	*	*	*	*	*
2r	.	2r	.	2.f\	prop-	2cc\	-ter
!	!	!LO:TX:t=P:problem=kreska pseudotaktowa	!	!	!	!	!
!	!	!LO:LB:g=original	!	!	!	!	!
2F/	prop-	2A/	prop-	.	.	2cc\	ma-
.	.	.	.	4e\	.	.	.
2G/	-t(er)	2.B-/	.	2d\	-ter	1.b-,<	-gna(m)
2G/	mag-	.	.	2.g\,<	mag-	.	.
.	.	4c,</	-ter	.	.	.	.
=21-	=21-	=21-	=21-	=21-	=21-	=21-	=21-
1D	-na(m)	2d\	.	.	.	.	.
.	.	.	.	4f\	.	.	.
!	!	!LO:TX:t=P:problem=kreska pseudotaktowa	!	!	!	!	!
.	.	2A/	mag-	1f	-na(m)	2a/	.
2r	.	2.c/	-na(m)	.	.	1g,<	.
!	!	!	!	!LO:TX:t=P:problem=kreska pseudotaktowa	!	!	!
2C/	glo-	.	.	2e\	.	.	.
.	.	8B-/	glo-	.	.	.	.
.	.	8c/,<	.	.	.	.	.
=22-	=22-	=22-	=22-	=22-	=22-	=22-	=22-
!	!	!	!	!	!	!LO:TX:t=P:problem=kreska pseudotaktowa	!
2F/	-ri-	2d\	-ri-	2f\	.	1f	.
*custos:C	*	*	*	*	*	*	*
!LO:TX:t=P:problem=kreska pseudotaktowa	!	!	!	!	!	!	!
!	!	!LO:TX:t=P:problem=kreska pseudotaktowa	!	!	!	!	!
2F/	-a	2A/	-a(m)	2d\	.	.	.
!LO:LB:g=original	!	!	!	!	!	!	!
*lig	*	*	*	*	*	*	*
1C	tu-	2r	.	4e\	glo-	2g/	glo-
.	.	.	.	4d\	.	.	.
.	.	1c\,<	tv-	4c/	-ri-	2.a/,<	-ri-
!	!	!	!	!LO:TX:t=P:problem=kreska pseudotaktowa	!	!	!
.	.	.	.	4B-/	-am	.	.
=23-	=23-	=23-	=23-	=23-	=23-	=23-	=23-
1D	.	.	.	2A/	.	.	.
.	.	.	.	.	.	4g/	-am
.	.	2B-/	.	2F/	.	1f	tu-
*Xlig	*	*	*	*	*	*	*
!LO:TX:t=P:problem=kreska pseudotaktowa	!	!LO:TX:t=P:problem=kreska pseudotaktowa	!	!	!	!	!
1C	-am	0c,<	-am	1G,<	tu-	.	.
.	.	.	.	.	.	2e/,<	.
=24-	=24-	=24-	=24-	=24-	=24-	=24-	=24-
!	!	!	!	!LO:TX:t=P:problem=kreska pseudotaktowa	!	!LO:TX:t=P:problem=kreska pseudotaktowa	!
2r	.	.	.	1F	-a(m)	1f	-am
1F	do-	.	.	.	.	.	.
.	.	2r	.	1.F,<	Do-	1.ff,<	Do-
!LO:TX:t=P:problem=kreska pseudotaktowa	!	!	!	!	!	!	!
2E/	-mi-	1c\,<	Do-	.	.	.	.
=25-	=25-	=25-	=25-	=25-	=25-	=25-	=25-
2D/	-ne	.	.	.	.	.	.
!	!	!LO:TX:t=P:problem=kreska pseudotaktowa	!	!	!	!	!
2D/	de-	2B-/	.	2F/	-mi-	2ff\	-mi-
!LO:TX:t=P:problem=kreska pseudotaktowa	!	!	!	!	!	!	!
1C	-us	2c/	-mi-	2G/	-ne	2ee\	-(n)e
.	.	2c/,<	-ne	2G/,<	de-	2ee\,<	de-
=26-	=26-	=26-	=26-	=26-	=26-	=26-	=26-
2.D/	rex	2A/	de-	2F/	-us	1dd	-us
.	.	2F/	-us	1f	.	.	.
4E/	.	.	.	.	.	.	.
1F	ce-	2.A/	rex	.	.	2cc\	rex
!	!	!	!	!LO:TX:t=P:problem=kreska pseudotaktowa	!	!	!
.	.	.	.	2f\	rex	1ff\	.
.	.	4B-/,<	ce-	.	.	.	.
=27-	=27-	=27-	=27-	=27-	=27-	=27-	=27-
1C	-leſ-	1c	-leſ-	1g	ce-	.	.
!	!	!	!	!	!	!LO:TX:t=P:problem=kreska pseudotaktowa	!
.	.	.	.	.	.	2ee\	ce-
!LO:TX:t=P:problem=kreska pseudotaktowa	!	!LO:TX:t=P:problem=kreska pseudotaktowa	!	!	!	!	!
1D	-tis	1A	-t(i)ſ	1f,<	-leſ-	2.ff\	-leſ-
.	.	.	.	.	.	4ee\,<	.
=28-	=28-	=28-	=28-	=28-	=28-	=28-	=28-
2r	.	2r	.	2g\	.	2dd\	.
2F/	de-	2f\	de-	2a\	.	1cc	.
2G\	-us	2e\	.	2.g\	-t(i)ſ	.	.
!LO:TX:t=P:problem=kreska pseudotaktowa	!	!LO:TX:t=P:problem=kreska pseudotaktowa	!	!	!	!	!
2G\	pa-	2d\	.	.	.	2b-/,<	.
.	.	.	.	4f\,<	.	.	.
=29-	=29-	=29-	=29-	=29-	=29-	=29-	=29-
!	!	!	!	!	!	!LO:TX:t=P:problem=kreska pseudotaktowa	!
2.A\	-ter	2.c/	-us	0e,<	.	1cc	-tis
!	!	!LO:TX:t=P:problem=kreska pseudotaktowa	!	!	!	!	!
4G\	.	4B-/	.	.	.	.	.
4A\	om-	4c/	pr(op-	.	.	2r	.
4B-\	.	4d/	-ter)	.	.	.	.
!LO:TX:t=P:problem=kreska pseudotaktowa	!	!	!	!	!	!	!
(<2.c\	-ni-	2.e\,<	om-	.	.	2g/	De-
=30-	=30-	=30-	=30-	=30-	=30-	=30-	=30-
*	*	*	*	*custos:c	*	*	*
!	!	!	!	!LO:TX:t=P:problem=kreska pseudotaktowa	!	!	!
.	.	.	.	1c	De-	2g/	-us
4B-\)	.	4d\	-ni-	.	.	.	.
2c\	-po-	1g	-po-	.	.	2g/	p(a-
!	!	!	!	!LO:LB:g=original	!	!	!
1A	.	.	.	2c/	-vs	2a/	-te)r
*	*	*custos:g	*	*	*	*	*
*	*	*	*	*	*	*custos:b	*
!	!	!	!	!	!	!LO:TX:t=P:problem=kreska pseudotaktowa	!
!	!	!LO:TX:t=P:problem=kreska pseudotaktowa	!	!	!	!	!
.	.	2f\	.	2c/,<	pa-	2cc/	om-
!	!	!LO:LB:g=original	!	!	!	!LO:LB:g=original	!
=31-	=31-	=31-	=31-	=31-	=31-	=31-	=31-
!LO:TX:t=P:problem=kreska pseudotaktowa	!	!LO:TX:t=P:problem=kreska pseudotaktowa	!	!	!	!	!
1G	-tens	1g	-te(n)ſ	2.d\	.	2b-/	-ni-
.	.	.	.	.	.	2.dd\	-po-
!	!	!	!	!LO:TX:t=P:problem=kreska pseudotaktowa	!	!	!
.	.	.	.	4e\	-ter	.	.
2r	.	2r	.	2f\	om-	.	.
.	.	.	.	.	.	4cc\	.
2C/	do-	2g\,<	D(o-	2e\,<	.	1cc\,<	.
=32-	=32-	=32-	=32-	=32-	=32-	=32-	=32-
2G\	-mi-	2g\	-mi)-	2d\	-ni-	.	.
!	!	!	!	!	!	!LO:TX:t=P:problem=kreska pseudotaktowa	!
!	!	!LO:TX:t=P:problem=kreska pseudotaktowa	!	!	!	!LO:TX:a:t=SIC&colon;s=2bn	!
2G\	-ne	2g\	-ne	2d\	-po-	2b-/	.
!LO:TX:t=P:problem=kreska pseudotaktowa	!	!	!	!LO:TX:t=P:problem=kreska pseudotaktowa	!	!LO:TX:t=P:problem=kreska pseudotaktowa	!
1A	fi-	2e\	fi-	1c	-tens	1cc	-tens
.	.	1f\,<	-li	.	.	.	.
!LO:LB:g=original	!	!	!	!	!	!	!
=33-	=33-	=33-	=33-	=33-	=33-	=33-	=33-
2F/	-li	.	.	2r	.	2r	.
1G	u-	2d\	v-	2B-/	Do-	2g/	Do-
.	.	2e\	-ni-	2G/	-mi-	2g/	-mi-
!LO:TX:t=P:problem=kreska pseudotaktowa	!	!	!	!	!	!	!
2E/	-ni-	2c/,<	-ge-	1c\	-ne	2g/,<	-ne
=34-	=34-	=34-	=34-	=34-	=34-	=34-	=34-
2F/	-ge-	1d	-ni-	.	.	2a/	fi-
!	!	!	!	!LO:TX:t=P:problem=kreska pseudotaktowa	!	!	!
!	!	!	!	!LO:SIC:v:s=2Bn/	!	!LO:TX:t=P:problem=nuta przekreślona	!
2G\	-ni-	.	.	2B-/	fi-	1g	-li
!LO:TX:t=P:problem=kreska pseudotaktowa	!	!LO:TX:t=P:problem=kreska pseudotaktowa	!	!	!	!	!
1C	-te	1e	-te	1c	-li	.	.
!	!	!	!	!	!	!LO:TX:t=P:problem=nuta przekreślona	!
.	.	.	.	.	.	1cc\,<	v-
=35-	=35-	=35-	=35-	=35-	=35-	=35-	=35-
1G	Je-	2r	.	1d	v-	.	.
!	!	!	!	!	!	!LO:TX:t=P:problem=kreska pseudotaktowa	!
.	.	2g\	V-	.	.	2b-/	-ni-
2A\	-ſu	2e\	-ni-	2c/	-ni-	2a/	-ge-
2F/	.	2f\,<	-ge-	1c\	-ge-	2a/,<	-ni-
=36-	=36-	=36-	=36-	=36-	=36-	=36-	=36-
1G	Chri-	1d	-ni-	.	.	0g,<	-te
!	!	!	!	!LO:SIC:v:s=2Bn/	!	!	!
.	.	.	.	2B-/	.	.	.
!LO:TX:t=P:problem=kreska pseudotaktowa	!	!LO:TX:t=P:problem=kreska pseudotaktowa	!	!	!	!	!
1C	-ſte	1e	-te	0c	-ni-	.	.
=37-	=37-	=37-	=37-	=37-	=37-	=37-	=37-
0F	Je-	1f	Je-	.	.	1a	Je-
!	!	!	!	!LO:TX:t=P:problem=kreska pseudotaktowa	!	!LO:TX:t=P:problem=kreska pseudotaktowa	!
.	.	0f,<	-ſu	1c	-te	0a,<	-ſu
=38-	=38-	=38-	=38-	=38-	=38-	=38-	=38-
!	!	!	!	!	!	!	!
1D	-ſu	.	.	1d	Je-	.	.
1A	Chr(is-	1c,<	Chr(is-	1e,<	.	1.cc,<	Chriſ-
=39-	=39-	=39-	=39-	=39-	=39-	=39-	=39-
!LO:TX:t=P:problem=kreska pseudotaktowa	!	!	!	!	!	!	!
1F	-t)e	0d,<	-t)e	1f	-ſv	.	.
.	.	.	.	.	.	4b-/	.
.	.	.	.	.	.	4a/	.
2G\	Do-	.	.	2r	.	2.b-/	-te.
!	!	!	!	!LO:TX:t=P:problem=kreska pseudotaktowa	!	!	!
2G\	-mi-	.	.	2g\	do-	.	.
.	.	.	.	.	.	4cc/,<	.
=40-	=40-	=40-	=40-	=40-	=40-	=40-	=40-
!	!	!LO:TX:t=P:problem=kreska pseudotaktowa	!	!	!	!LO:TX:t=P:problem=kreska pseudotaktowa	!
2A\	-ne	1c	D(o-	2e\	-mi-	1a	.
!LO:TX:t=P:problem=kreska pseudotaktowa	!	!	!	!	!	!	!
2A\	de-	.	.	2.f\	-ne	.	.
2F/	-us	2c/	-mi)-	.	.	2r	.
.	.	.	.	4e\	de-	.	.
!	!	!	!	!LO:TX:t=P:problem=kreska pseudotaktowa	!	!	!
2A\	ag-	2c/,<	-ne	2f\	-us	2cc\,<	Do-
=41-	=41-	=41-	=41-	=41-	=41-	=41-	=41-
2G\	-nus	2d\	de-	4g\	ag-	2cc\	-mi-
.	.	.	.	4e\	.	.	.
!	!	!	!	!	!	!LO:TX:t=P:problem=kreska pseudotaktowa	!
2B-\	de-	2d\	-us	1g	.	2b-/	-ne
1A	.	2e\	a-	.	.	2cc\	de-
*	*	*	*	*custos:g	*	*	*
!	!	!LO:TX:t=P:problem=kreska pseudotaktowa	!	!LO:TX:t=P:problem=kreska pseudotaktowa	!	!	!
.	.	2c/	.	2f\	.	2a/,<	-us,
!	!	!	!	!LO:LB:g=original	!	!	!
=42-	=42-	=42-	=42-	=42-	=42-	=42-	=42-
!LO:TX:t=P:problem=kreska pseudotaktowa	!	!	!	!	!	!	!
1G	-i	2d\	-gnus	1g	-nus	2b-/	a-
.	.	2B-/	.	.	.	2.dd\	.
2r	.	2c/	.	2r	.	.	.
.	.	.	.	.	.	4cc/	.
!	!	!	!	!LO:TX:t=P:problem=kreska pseudotaktowa	!	!	!
2E/	fi-	2e\,<	de-	2g\	a-	1cc\,<	-gnus
=43-	=43-	=43-	=43-	=43-	=43-	=43-	=43-
2F/	-li-	2d\	-i	2a\	.	.	.
*	*	*	*	*	*	*custos:cc	*
!	!	!	!	!	!	!LO:TX:t=P:problem=kreska pseudotaktowa	!
2G\	-us	2d\	.	2g\	-gnus	2b-/	de-
!	!	!	!	!	!	!LO:LB:g=original	!
1A	pat-	0c,<	.	2e\	de-	1cc	-i
.	.	.	.	4d\	-i	.	.
!	!	!	!	!LO:TX:t=P:problem=kreska pseudotaktowa	!	!	!
.	.	.	.	4e\	.	.	.
=44-	=44-	=44-	=44-	=44-	=44-	=44-	=44-
!LO:TX:t=P:problem=kreska pseudotaktowa	!	!LO:TX:t=P:problem=kreska pseudotaktowa	!	!	!	!	!
1F	-ris	.	.	4f\	fi-	2r	.
.	.	.	.	4e\	-li-	.	.
!	!	!	!	!	!	!LO:TX:t=P:problem=kreska pseudotaktowa	!
.	.	.	.	4d\	.	2a/	fi-
.	.	.	.	4c/	-us	.	.
*custos:G	*	*custos:g	*	*	*	*	*
2r	.	2r	.	1d	.	2b-/	-li-
!LO:LB:g=original	!	!LO:LB:g=original	!	!	!	!	!
2G\	fi-	2g\,<	fi-	.	.	2b-/,<	-us
=45-	=45-	=45-	=45-	=45-	=45-	=45-	=45-
2A\	-li-	2f\	-li-	2c/	.	2cc/	pa-
!LO:TX:t=P:problem=kreska pseudotaktowa	!	!LO:TX:t=P:problem=kreska pseudotaktowa	!	!	!	!	!
2B-\	-us	2g\	-us	2.d\	p(at)-	2b-/	.
2c\	p(at)-	2e\	pa-	.	.	1a,<	.
.	.	.	.	4c/	.	.	.
2F\	.	2f\,<	.	2.c/	-ris	.	.
=46-	=46-	=46-	=46-	=46-	=46-	=46-	=46-
1G	.	1d	.	.	.	0gl	-tris
.	.	.	.	8B-/	A-	.	.
.	.	.	.	8A/	.	.	.
.	.	.	.	2B-/	.	.	.
*	*	*	*	*custos:f	*	*	*
1Cl	-ris	1e;l	-tris	1cl	-men	.	.
!	!	!	!	!LO:PB:g=original	!	!	!
=47||-	=47||-	=47||-	=47||-	=47||-	=47||-	=47||-	=47||-
*met(c|)	*	*	*met(C|)	*	*	*	*
!LO:TX:t=P:problem=zdwojony znak przykluczowy	!	!	!	!	!	!	!
*	*	*met(c|)	*	*	*	*met(c|)	*
1F	Qvi	1c	Qvi	2r	.	1a	Qvi
!	!	!	!	!LO:TX:t=P:problem=kreska pseudotaktowa	!	!	!
.	.	.	.	2f\	Qvi	.	.
2F/	tol-	2d/	tol-	2.f\	tol-	2a/	tol-
!LO:TX:t=P:problem=kreska pseudotaktowa	!	!LO:TX:t=P:problem=kreska pseudotaktowa	!	!	!	!LO:TX:t=P:problem=kreska pseudotaktowa	!
2F/	-lis	2c/	-lis	.	.	2a/	-lis
.	.	.	.	4e\,<	.	.	.
=48-	=48-	=48-	=48-	=48-	=48-	=48-	=48-
1F	pec-	2.f\	pec-	2d/	-lis	1a	pec-
!	!	!	!	!LO:TX:t=P:problem=kreska pseudotaktowa	!	!	!
.	.	.	.	2c/	.	.	.
.	.	4e\	.	.	.	.	.
1G	-ca-	2d\	-ca-	2.g\	pec-	1b-,<	-ca-
!	!	!LO:TX:t=P:problem=kreska pseudotaktowa	!	!	!	!	!
.	.	2e\	-ta	.	.	.	.
.	.	.	.	4f\,<	.	.	.
=49-	=49-	=49-	=49-	=49-	=49-	=49-	=49-
2A\	-ta	2c/	.	2e\	-ca-	2cc\	-ta
2F/	.	1f	mun-	1d	-ta	1a	mu(n)-
1G	mun-	.	.	.	.	.	.
!	!	!LO:TX:t=P:problem=kreska pseudotaktowa	!	!	!	!	!
.	.	2e\	.	4c/	mun-	2g/,<	.
!	!	!	!	!LO:TX:t=P:problem=kreska pseudotaktowa	!	!	!
.	.	.	.	4B-/	.	.	.
=50-	=50-	=50-	=50-	=50-	=50-	=50-	=50-
!LO:TX:t=P:problem=kreska pseudotaktowa	!	!	!	!	!	!LO:TX:t=P:problem=kreska pseudotaktowa	!
0F	-di	2f\	-di	2d/	-di	1a	-di
.	.	4e\	.	2c/	.	.	.
.	.	4d\	.	.	.	.	.
!	!	!LO:TX:t=P:problem=kreska pseudotaktowa	!	!	!	!	!
.	.	1c	.	2f\	.	2r	.
.	.	.	.	4e\	.	2a/,<	mi-
!	!	!	!	!LO:TX:t=P:problem=kreska pseudotaktowa	!	!	!
.	.	.	.	4d\	.	.	.
=51-	=51-	=51-	=51-	=51-	=51-	=51-	=51-
2r	.	2r	.	2c/	.	2a/	-ſe-
2F/	mi-	2A/	mi-	1f	Mi-	2a/	-re-
*	*	*	*	*	*	*custos:f	*
!	!	!	!	!	!	!LO:TX:t=P:problem=kreska pseudotaktowa	!
2G\	-ſe-	2B-/	-ſe-	.	.	1g	-re
!LO:TX:t=P:problem=kreska pseudotaktowa	!	!	!	!LO:TX:t=P:problem=kreska pseudotaktowa	!	!	!
2G\	-re-	2B-/,<	-re-	2e\,<	-ſe-	.	.
!	!	!	!	!	!	!LO:PB:g=original	!
=52-	=52-	=52-	=52-	=52-	=52-	=52-	=52-
2D/	-re	1.A	-re	2d\	-re-	2.f/	no-
2E/	no-	.	.	2.c/	-re	.	.
.	.	.	.	.	.	4g/	.
0F	-bis	.	.	.	.	4a/	.
.	.	.	.	4B-/	.	4f/	.
.	.	2F/,<	no-	4A/	.	2.a/,<	-bis
!	!	!	!	!LO:TX:t=P:problem=kreska pseudotaktowa	!	!	!
.	.	.	.	4G/	.	.	.
=53-	=53-	=53-	=53-	=53-	=53-	=53-	=53-
.	.	0c,<	.	2F/	.	.	.
.	.	.	.	.	.	4g/	.
.	.	.	.	2A/	no-	1f	.
1C	.	.	.	1G,<	.	.	.
.	.	.	.	.	.	2e/,<	.
=54-	=54-	=54-	=54-	=54-	=54-	=54-	=54-
*custos:F	*	*	*	*	*	*	*
!LO:TX:t=P:problem=kreska pseudotaktowa	!	!	!	!	!	!	!
!	!	!LO:TX:t=P:problem=kreska pseudotaktowa	!	!LO:TX:t=P:problem=kreska pseudotaktowa	!	!LO:TX:t=P:problem=kreska pseudotaktowa	!
1F	.	1A	-bis	1F	-bis	0f	.
!LO:LB:g=original	!	!	!	!	!	!	!
1F	Qvi	2r	.	1c,<	qui	.	.
.	.	2f\,<	Qvi	.	.	.	.
=55-	=55-	=55-	=55-	=55-	=55-	=55-	=55-
2F/	tol-	2.f\	tol-	2d\	tol-	2r	.
*	*	*	*	*custos:f	*	*	*
!	!	!	!	!LO:TX:t=P:problem=kreska pseudotaktowa	!	!	!
!LO:TX:t=P:problem=kreska pseudotaktowa	!	!	!	!	!	!	!
2F/	-lis	.	.	2c/	-lis	2a/	Qvi
*	*	*custos:d	*	*	*	*	*
!	!	!LO:TX:t=P:problem=kreska pseudotaktowa	!	!	!	!	!
.	.	4e\	.	.	.	.	.
!	!	!LO:LB:g=original	!	!LO:LB:g=original	!	!	!
1F	pec-	2d/	-lis	2.f\	pec-	2a/	tol-
.	.	2c/,<	.	.	.	2a/,<	-lis
.	.	.	.	4e\,<	.	.	.
=56-	=56-	=56-	=56-	=56-	=56-	=56-	=56-
!	!	!	!	!	!	!LO:TX:t=P:problem=kreska pseudotaktowa	!
1G	-ca-	2B-/	p(e)c-	2d\	-ca-	1b-	p(ec)-
.	.	2.d/	-(ca)-	2.g\	-ta	.	.
2A\	-ta	.	.	.	.	2a/	-c(a)-
.	.	4c/	.	4f\	.	.	.
!LO:TX:t=P:problem=kreska pseudotaktowa	!	!	!	!	!	!	!
2F/	.	4B-/	-ta	1f\,<	m(un)-	1a/,<	-ta
!	!	!LO:TX:t=P:problem=kreska pseudotaktowa	!	!	!	!	!
.	.	4A/	.	.	.	.	.
=57-	=57-	=57-	=57-	=57-	=57-	=57-	=57-
1G	mu(n)-	1B-	mun-	.	.	.	.
!	!	!	!	!LO:TX:t=P:problem=kreska pseudotaktowa	!	!	!
.	.	.	.	2e\	.	2g/	mun-
!LO:TX:t=P:problem=kreska pseudotaktowa	!	!	!	!	!	!LO:TX:t=P:problem=kreska pseudotaktowa	!
0F	-di	2.A/	.	0f,<	-di	1a	-di
.	.	4B-/,<	.	.	.	.	.
=58-	=58-	=58-	=58-	=58-	=58-	=58-	=58-
!	!	!LO:TX:t=P:problem=kreska pseudotaktowa	!	!	!	!	!
.	.	1c	-di	.	.	2r	.
.	.	.	.	.	.	1a	Suſ-
1.F	Suſ-	2r	.	2r	.	.	.
.	.	2c/,<	Suſ-	1f\,<	Suſ-	2a/,<	-ci-
=59-	=59-	=59-	=59-	=59-	=59-	=59-	=59-
!	!	!	!	!	!	!LO:TX:t=P:problem=kreska pseudotaktowa	!
.	.	1c	-ci-	.	.	1a	-pe
!	!	!	!	!LO:TX:t=P:problem=kreska pseudotaktowa	!	!	!
2F\	-ci-	.	.	2f\	-ci-	.	.
!LO:TX:t=P:problem=kreska pseudotaktowa	!	!LO:TX:t=P:problem=kreska pseudotaktowa	!	!	!	!	!
0F	-pe	1c	-pe	0f,<	-pe	2r	.
.	.	.	.	.	.	2cc/	de-
=60-	=60-	=60-	=60-	=60-	=60-	=60-	=60-
!	!	!	!	!	!	!	!
.	.	2r	.	.	.	2cc/	-pre-
!	!	!	!	!	!	!LO:TX:t=P:problem=kreska pseudotaktowa	!
.	.	2F/	de-	.	.	2a/	-ca-
2r	.	2G/	-pre-	2r	.	2b-/	-ci-
!	!	!LO:TX:t=P:problem=kreska pseudotaktowa	!	!LO:TX:t=P:problem=kreska pseudotaktowa	!	!	!
2F/	de-	2A/	-ca-	2f\	de-	2.cc/,<	-o-
=61-	=61-	=61-	=61-	=61-	=61-	=61-	=61-
2F/	-pre-	2A/	-ci-	2a\	-pre-	.	.
.	.	.	.	.	.	4a/	-nem
2G\	-ca-	2B-/	-o-	1g	-ca-	2.dd/	noſ-
2A\	-ci-	1c,<	-ne(m)	.	.	.	.
.	.	.	.	.	.	4cc/	.
!	!	!	!	!LO:TX:t=P:problem=kreska pseudotaktowa	!	!	!
2A\	-o-	.	.	2f\	-ci-	1cc\,<	.
=62-	=62-	=62-	=62-	=62-	=62-	=62-	=62-
!LO:TX:t=P:problem=kreska pseudotaktowa	!	!	!	!	!	!	!
1G	-nem	1d	n(ost)-	2.g\	-o-	.	.
*	*	*	*	*	*	*custos:cc	*
!	!	!	!	!	!	!LO:TX:t=P:problem=kreska pseudotaktowa	!
.	.	.	.	.	.	2b-/	.
.	.	.	.	4f\	.	.	.
!	!	!	!	!	!	!LO:LB:g=original	!
!	!	!LO:TX:t=P:problem=kreska pseudotaktowa	!	!	!	!LO:TX:t=P:problem=kreska pseudotaktowa	!
2A\	n(ost)-	1c	-ram	2e\	-ne(m)	1cc	-tra(m)
!	!	!	!	!LO:TX:t=P:problem=kreska pseudotaktowa	!	!	!
2F/	.	.	.	2f\	n(ost)-	.	.
=63-	=63-	=63-	=63-	=63-	=63-	=63-	=63-
1G	-ram	2r	.	2d\	-ram	2r	.
.	.	2B-/	qui	2e\	.	2g/	qui
!LO:TX:t=P:problem=kreska pseudotaktowa	!	!	!	!	!	!	!
1F	.	2c/	.	2f\	.	2a/	ſe-
!	!	!	!	!LO:TX:t=P:problem=kreska pseudotaktowa	!	!	!
.	.	2A/,<	ſe-	2c/	qui	2a/,<	-des
=64-	=64-	=64-	=64-	=64-	=64-	=64-	=64-
2r	.	2.G/	-des	2.d\	ſe-	1b-	ad
2G\	Qui	.	.	.	.	.	.
!	!	!LO:TX:t=P:problem=kreska pseudotaktowa	!	!	!	!	!
.	.	4A/	.	4c/	-des	.	.
2G\	ſe-	1B-,<	ad	2d\	ad	2b-/	dex-
!	!	!	!	!LO:TX:t=P:problem=kreska pseudotaktowa	!	!LO:TX:t=P:problem=kreska pseudotaktowa	!
2G\	-deſ	.	.	2e\	.	2g/	.
=65-	=65-	=65-	=65-	=65-	=65-	=65-	=65-
2F/	ad	2A/	dex-	2f\	dex-	2a/	-te-
!	!	!LO:TX:t=P:problem=kreska pseudotaktowa	!	!	!	!	!
2D/	dex-	2d\	.	4e\	.	2b-/	-ra(m)
*	*	*	*	*custos:g	*	*	*
!	!	!	!	!LO:TX:t=P:problem=kreska pseudotaktowa	!	!	!
.	.	.	.	4f\	.	.	.
!	!	!	!	!LO:LB:g=original	!	!	!
2E/	-te-	2c/	-te-	2g\	-te-	2cc\	pa-
*custos:G	*	*	*	*	*	*	*
!LO:TX:t=P:problem=kreska pseudotaktowa	!	!	!	!	!	!	!
2F/	-ra(m)	2.d\,<	-ra(m)	1f\,<	-ra(m)	1a/,<	.
!LO:PB:g=original	!	!	!	!	!	!	!
=66-	=66-	=66-	=66-	=66-	=66-	=66-	=66-
!	!	!	!	!	!	!	!
0G	pat-	.	.	.	.	.	.
.	.	4c/	pat-	.	.	.	.
.	.	4B-/	.	4e\	p(at)-	4g/	-tris
!	!	!	!	!LO:TX:t=P:problem=kreska pseudotaktowa	!	!	!
.	.	4A/	.	4d\	.	4f/	.
*	*	*custos:A	*	*	*	*	*
!	!	!LO:TX:t=P:problem=kreska pseudotaktowa	!	!	!	!	!
.	.	1B-	-ris	1e,<	-ris	1g,<	.
!	!	!LO:PB:g=original	!	!	!	!	!
=67-	=67-	=67-	=67-	=67-	=67-	=67-	=67-
!	!	!	!	!LO:TX:t=P:problem=kreska pseudotaktowa	!	!LO:TX:t=P:problem=kreska pseudotaktowa	!
2.D/	-ris	2A/	.	1f	.	1a	.
.	.	2.d/	.	.	.	.	.
!LO:TX:t=P:problem=kreska pseudotaktowa	!	!	!	!	!	!	!
4E/	.	.	.	.	.	.	.
1F	mi-	.	.	1A,<	Mi-	2r	.
.	.	4c/	.	.	.	.	.
.	.	1f\,<	.	.	.	2a/,<	Mi-
=68-	=68-	=68-	=68-	=68-	=68-	=68-	=68-
1G	.	.	.	2B-/	-ſe-	1g	-ſe-
.	.	4e/	.	2G/	-re-	.	.
!	!	!LO:TX:t=P:problem=kreska pseudotaktowa	!	!	!	!	!
.	.	4d/	.	.	.	.	.
2G\	-ſe-	2e/	.	1.B-,<	-(re)	1g,<	-re-
!LO:TX:t=P:problem=kreska pseudotaktowa	!	!	!	!	!	!	!
2G\	-re-	2e/,<	.	.	.	.	.
=69-	=69-	=69-	=69-	=69-	=69-	=69-	=69-
!	!	!LO:TX:t=P:problem=kreska pseudotaktowa	!	!	!	!	!
2D/	-re	1f	.	.	.	1f	-re
!	!	!	!	!LO:TX:t=P:problem=kreska pseudotaktowa	!	!	!
2F/	.	.	.	2A/	no-	.	.
0G	no-	1B-,<	Mi-	2G/	.	0b-,<	no-
.	.	.	.	2.d\,<	.	.	.
=70-	=70-	=70-	=70-	=70-	=70-	=70-	=70-
.	.	2B-/	-ſe-	.	.	.	.
.	.	.	.	4c/	.	.	.
.	.	2B-/	-re-	4d\	-bis	.	.
.	.	.	.	4e\	.	.	.
!	!	!	!	!LO:TX:t=P:problem=kreska pseudotaktowa	!	!LO:TX:t=P:problem=kreska pseudotaktowa	!
2A\	.	2c/	-re	1f	.	1a	-b(is).
2F/	-bis	2.d/,<	no-	.	.	.	.
=71-	=71-	=71-	=71-	=71-	=71-	=71-	=71-
0G	.	.	.	2r	.	2r	.
.	.	4c/	.	.	.	.	.
.	.	4B-/	.	2d\	Tu	2g/	Quo-
!	!	!LO:TX:t=P:problem=kreska pseudotaktowa	!	!	!	!	!
.	.	4A/	.	.	.	.	.
.	.	1B-,<	-bis	2d\	So-	2g/	-ni-
!	!	!	!	!LO:TX:t=P:problem=kreska pseudotaktowa	!	!	!
.	.	.	.	2e\	.	2g/,<	-a(m)
=72-	=72-	=72-	=72-	=72-	=72-	=72-	=72-
!LO:TX:t=P:problem=kreska pseudotaktowa	!	!LO:TX:t=P:problem=kreska pseudotaktowa	!	!	!	!	!
1F,<	.	1c	.	2f\	-lus	2.a/	tu
.	.	.	.	4e\	d(o-	.	.
!	!	!	!	!	!	!LO:TX:t=P:problem=kreska pseudotaktowa	!
.	.	.	.	4d\	-mi)-	4b-/	.
2r	.	2r	.	2c/	-n(u)s	2cc\	ſo-
!	!	!	!	!LO:TX:t=P:problem=kreska pseudotaktowa	!	!	!
2G\	Qvo-	2g\,<	Qvo-	2B-/	.	2.dd\,<	.
=73-	=73-	=73-	=73-	=73-	=73-	=73-	=73-
2A\	-ni-	2e\	-ni-	1c	.	.	.
.	.	.	.	.	.	4cc\	-lus
!LO:TX:t=P:problem=kreska pseudotaktowa	!	!LO:TX:t=P:problem=kreska pseudotaktowa	!	!	!	!	!
2A\	-a(m)	2f\	-am	.	.	1cc	San-
2G\	tu	2g\	.	1d,<	.	.	.
*	*	*	*	*	*	*custos:cc	*
!	!	!	!	!	!	!LO:TX:t=P:problem=kreska pseudotaktowa	!
2B-\	So-	2.f\,<	tu	.	.	2b-/	.
!	!	!	!	!	!	!LO:LB:g=original	!
=74-	=74-	=74-	=74-	=74-	=74-	=74-	=74-
!	!	!	!	!LO:TX:t=P:problem=kreska pseudotaktowa	!	!LO:TX:t=P:problem=kreska pseudotaktowa	!
2A\	-ris	.	.	1c	.	1cc	-ctus
.	.	4c/	.	.	.	.	.
4G/	.	1f	ſo-	.	.	.	.
4F/	.	.	.	.	.	.	.
0G	Sa(n)c-	.	.	2r	.	2r	.
.	.	4e/	-lus	2B-/,<	tu	2g/	tu
.	.	4d/,<	.	.	.	.	.
=75-	=75-	=75-	=75-	=75-	=75-	=75-	=75-
.	.	1e	ſan-	2B-/	ſo-	2b-/	ſo-
.	.	.	.	2G/	-lus	2b-/	-lus
!LO:TX:t=P:problem=kreska pseudotaktowa	!	!LO:TX:t=P:problem=kreska pseudotaktowa	!	!	!	!	!
1F	-tus	1f	-ctus	2.c/	do-	2.a/	do-
*	*	*	*	*custos:A	*	*	*
!	!	!	!	!	!	!LO:TX:t=P:problem=kreska pseudotaktowa	!
!	!	!	!	!LO:TX:t=P:problem=kreska pseudotaktowa	!	!	!
.	.	.	.	4B-/	.	4g/,<	.
!	!	!	!	!LO:LB:g=original	!	!	!
=76-	=76-	=76-	=76-	=76-	=76-	=76-	=76-
2r	.	2r	.	2A/	.	2f/	.
2C/	tu	2d/	tu	2G/	.	2.g/	-mi-
2F/	ſo-	2c/	So-	2.A/	-mi-	.	.
.	.	.	.	.	.	4f/	.
2F/	-lus	1d\,<	-lus	.	.	1f/,<	.
.	.	.	.	8G/	.	.	.
!	!	!	!	!LO:TX:t=P:problem=kreska pseudotaktowa	!	!	!
.	.	.	.	8A/	.	.	.
=77-	=77-	=77-	=77-	=77-	=77-	=77-	=77-
2G/	do-	.	.	2B-/	-nus	.	.
*custos:F	*	*custos:c	*	*	*	*	*
!LO:TX:t=P:problem=kreska pseudotaktowa	!	!LO:TX:t=P:problem=kreska pseudotaktowa	!	!	!	!	!
!	!	!	!	!	!	!LO:TX:t=P:problem=kreska pseudotaktowa	!
2G/	-mi-	2B-/	do-	2G/	.	2e/	-nus
!LO:LB:g=original	!	!LO:LB:g=original	!	!LO:TX:t=P:problem=kreska pseudotaktowa	!	!LO:TX:t=P:problem=kreska pseudotaktowa	!
2F/	-nus	2c/	.	1A	.	1f	.
4D/	.	4F/	.	.	.	.	.
!	!	!LO:TX:t=P:problem=kreska pseudotaktowa	!	!	!	!	!
4E/	.	4G/	.	.	.	.	.
=78-	=78-	=78-	=78-	=78-	=78-	=78-	=78-
4F/	.	4A/	-mi-	2r	.	2r	.
4G/	.	4B-/	.	.	.	.	.
2A\	.	1c	-nus	2c/	tu	2cc\	tu
1G	.	.	.	2g\	ſo-	2dd\	ſo-
!	!	!	!	!LO:TX:t=P:problem=kreska pseudotaktowa	!	!	!
.	.	2B-/,<	.	2g\	-lus	2ee\,<	-lus
=79-	=79-	=79-	=79-	=79-	=79-	=79-	=79-
!LO:TX:t=P:problem=kreska pseudotaktowa	!	!LO:TX:t=P:problem=kreska pseudotaktowa	!	!	!	!	!
1F	.	1c	.	2.a\	al-	2.ff\	al-
!	!	!	!	!	!	!LO:TX:t=P:problem=kreska pseudotaktowa	!
.	.	.	.	4g\	.	4ee\	.
2r	.	2r	.	2f\	-tiſ-	2dd\	-tiſ-
2C/	Tu	2g\,<	tu	2e\,<	-ſi-	1cc\,<	-ſi-
=80-	=80-	=80-	=80-	=80-	=80-	=80-	=80-
2G\	ſo-	2g\	ſo-	1d	-mus	.	.
!	!	!LO:TX:t=P:problem=kreska pseudotaktowa	!	!	!	!	!
2G\	-lus	2d\	-lus	.	.	2b-/	.
!	!	!	!	!LO:TX:t=P:problem=kreska pseudotaktowa	!	!LO:TX:t=P:problem=kreska pseudotaktowa	!
2.A\	al-	2.f\	al-	1c	.	1cc	-mus
!LO:TX:t=P:problem=kreska pseudotaktowa	!	!	!	!	!	!	!
4G\	-tiſ-	4e\,<	-tiſ-	.	.	.	.
=81-	=81-	=81-	=81-	=81-	=81-	=81-	=81-
2F/	-ſi-	2d\	-ſi-	1.a	Je-	0ff,<	Je-
2E/	.	1c	.	.	.	.	.
!LO:TX:t=P:problem=kreska pseudotaktowa	!	!	!	!	!	!	!
1D	-mus	.	.	.	.	.	.
.	.	2B-/,<	-mus	2f\,<	.	.	.
=82-	=82-	=82-	=82-	=82-	=82-	=82-	=82-
!	!	!LO:TX:t=P:problem=kreska pseudotaktowa	!	!	!	!	!
1C	.	1c	.	2a\	-ſu	1ee	-ſu
.	.	.	.	2.g\	Chri-	.	.
1G	Je-	2r	.	.	.	1dd,<	Chri-
.	.	.	.	4f\	.	.	.
.	.	2B-/,<	Je-	4d\	.	.	.
!	!	!	!	!LO:TX:t=P:problem=kreska pseudotaktowa	!	!	!
.	.	.	.	4e\,<	.	.	.
=83-	=83-	=83-	=83-	=83-	=83-	=83-	=83-
!	!	!	!	!	!	!LO:TX:t=P:problem=kreska pseudotaktowa	!
0A	-ſu	2.c/	-ſu	2f\	-ſte	0cc	-(ste)
.	.	.	.	2e\	.	.	.
!	!	!LO:TX:t=P:problem=kreska pseudotaktowa	!	!	!	!	!
.	.	4d\	.	.	.	.	.
.	.	2e\	Chri-	1a,<	.	.	.
.	.	2.f\,<	.	.	.	.	.
=84-	=84-	=84-	=84-	=84-	=84-	=84-	=84-
!LO:TX:t=P:problem=kreska pseudotaktowa	!	!	!	!	!	!	!
0B-	.	.	.	2.d\	.	2r	.
.	.	4e\	.	.	.	.	.
.	.	4d\	-ſte	.	.	2dd\	Cu(m)
!	!	!LO:TX:t=P:problem=kreska pseudotaktowa	!	!LO:TX:t=P:problem=kreska pseudotaktowa	!	!	!
.	.	4c/	.	4e\	.	.	.
.	.	1d,<	.	2.f\	.	2dd\	Sa(n)-
!	!	!	!	!	!	!LO:TX:t=P:problem=kreska pseudotaktowa	!
.	.	.	.	.	.	2b-/	-cte
.	.	.	.	4g\,<	.	.	.
=85-	=85-	=85-	=85-	=85-	=85-	=85-	=85-
*	*	*	*	*custos:a	*	*	*
!	!	!LO:TX:t=P:problem=kreska pseudotaktowa	!	!	!	!	!
!	!	!	!	!LO:TX:t=P:problem=kreska pseudotaktowa	!	!	!
1A	chri-	1e	.	1a	.	2cc\	.
.	.	.	.	.	.	4dd\	Spi-
.	.	.	.	.	.	4ee\	.
*	*	*	*	*	*	*custos:ee	*
!	!	!	!	!	!	!LO:TX:t=P:problem=kreska pseudotaktowa	!
!LO:TX:t=P:problem=kreska pseudotaktowa	!	!	!	!LO:LB:g=original	!	!	!
1D	-ſte	2.d\	.	2r	.	1ff	.
!	!	!	!	!LO:TX:t=P:problem=kreska pseudotaktowa	!	!	!
.	.	.	.	2a\	Cu(m)	.	.
.	.	8c/	.	.	.	.	.
.	.	8B-/,<	.	.	.	.	.
!	!	!	!	!	!	!LO:LB:g=original	!
=86-	=86-	=86-	=86-	=86-	=86-	=86-	=86-
2r	.	2c/	.	2a\	San-	2ee\	.
!	!	!	!	!LO:TX:t=P:problem=kreska pseudotaktowa	!	!	!
2B-\	Cum	2d\	.	2f\	.	1dd	.
2B-\	Sanc-	2G/	.	2.g\	-cto	.	.
!LO:TX:t=P:problem=kreska pseudotaktowa	!	!LO:TX:t=P:problem=kreska pseudotaktowa	!	!	!	!	!
2G\	.	2d/	.	.	.	4cc\	.
.	.	.	.	4f\,<	.	4b-\,<	.
=87-	=87-	=87-	=87-	=87-	=87-	=87-	=87-
2A\	-to	2r	.	2e\	Spi-	2cc\	.
*	*	*custos:d	*	*	*	*	*
!	!	!	!	!LO:TX:t=P:problem=kreska pseudotaktowa	!	!	!
2F/	Spi-	2d/	Cu(m)	2f\	.	2dd\	.
*custos:F	*	*	*	*	*	*	*
!LO:TX:t=P:problem=kreska pseudotaktowa	!	!	!	!	!	!	!
!	!	!LO:LB:g=original	!	!	!	!	!
1G	-ri-	2d\	ſan-	2d\	-(ri-	1b-,<	-ri-
!	!	!LO:TX:t=P:problem=kreska pseudotaktowa	!	!	!	!	!
.	.	2B-/	-cto	2e\,<	.	.	.
!LO:LB:g=original	!	!	!	!	!	!	!
=88-	=88-	=88-	=88-	=88-	=88-	=88-	=88-
!	!	!	!	!LO:TX:t=P:problem=kreska pseudotaktowa	!	!LO:TX:t=P:problem=kreska pseudotaktowa	!
2.F/	-tu	2.f\	Spi-	1f	-tu)	1a	-tu
4G\	.	8e\	-ri-	.	.	.	.
.	.	8d\	.	.	.	.	.
4A\	.	2e\	-tv	2r	.	2r	.
4B-\	.	.	.	.	.	.	.
!LO:TX:t=P:problem=kreska pseudotaktowa	!	!	!	!	!	!	!
2c\	.	2d\,<	.	2c/,<	in	2g/	in
=89-	=89-	=89-	=89-	=89-	=89-	=89-	=89-
!	!	!LO:TX:t=P:problem=kreska pseudotaktowa	!	!	!	!	!
1F	.	1c	.	2.f\	glo-	2.a/	glo-
!	!	!	!	!LO:TX:t=P:problem=kreska pseudotaktowa	!	!LO:TX:t=P:problem=kreska pseudotaktowa	!
.	.	.	.	4g\	.	4b-/	-ri-
2r	.	2r	.	2a\	-ri-	2cc\	-a
!LO:TX:t=P:problem=kreska pseudotaktowa	!	!	!	!	!	!	!
2C/	In	2c/,<	in	2a\,<	-a	2cc\,<	de-
=90-	=90-	=90-	=90-	=90-	=90-	=90-	=90-
2F/	glo-	2c/	glo-	2f\	de-	2a/	-i
!LO:TX:t=P:problem=kreska pseudotaktowa	!	!LO:TX:t=P:problem=kreska pseudotaktowa	!	!LO:TX:t=P:problem=kreska pseudotaktowa	!	!LO:TX:t=P:problem=kreska pseudotaktowa	!
2F/	-ri-	2A/	-ri-	2.a\	.	2cc\	pat-
2G\	-a	2B-/	-a	.	.	2b-/	-ris
.	.	.	.	4g\	-i	.	.
2G\	de-	2B-/,<	de-	2e\,<	p(at)-	2g/,<	.
=91-	=91-	=91-	=91-	=91-	=91-	=91-	=91-
!LO:TX:t=P:problem=kreska pseudotaktowa	!	!	!	!LO:TX:t=P:problem=kreska pseudotaktowa	!	!LO:TX:t=P:problem=kreska pseudotaktowa	!
1F	-i	2c/	-i	1f	-ris	1a	A-
.	.	4B-/	.	.	.	.	.
.	.	4A/	.	.	.	.	.
!	!	!	!	!	!	!	!
2E/	pat-	2G/	pat-	2r	.	2.cc\	.
!	!	!LO:TX:t=P:problem=kreska pseudotaktowa	!	!	!	!	!
2C/	-ris	2A/	-ris	1c\,<	A-	.	.
.	.	.	.	.	.	4b-/	.
=92-	=92-	=92-	=92-	=92-	=92-	=92-	=92-
*lig	*	*	*	*	*	*	*
1D	a-	1F	a-	.	.	4a/	.
.	.	.	.	.	.	4g/	.
.	.	.	.	2B-/	.	1f	.
!LO:TX:t=P:problem=kreska pseudotaktowa	!	!	!	!LO:TX:t=P:problem=kreska pseudotaktowa	!	!	!
1C	.	1G,<	.	1c	.	.	.
.	.	.	.	.	.	2e/,<	.
*Xlig	*	*	*	*	*	*	*
=93-	=93-	=93-	=93-	=93-	=93-	=93-	=93-
*lig	*	*	*	*	*	*	*
1F	-men	2F/	.	2r	.	[0f;l	-men
.	.	2A/	.	1d	.	.	.
1G	.	1B-,<	.	.	.	.	.
.	.	.	.	4c/	.	.	.
.	.	.	.	4B-/,<	.	.	.
*Xlig	*	*	*	*	*	*	*
=94-	=94-	=94-	=94-	=94-	=94-	=94-	=94-
*lig	*	*	*	*	*	*	*
1F	.	00c;	-men	1A	.	0f_	.
1BB-	.	.	.	1B-,<	.	.	.
*Xlig	*	*	*	*	*	*	*
=95-	=95-	=95-	=95-	=95-	=95-	=95-	=95-
0F;l	.	.	.	0cl	-men	0f]	.
==	==	==	==	==	==	==	==
*-	*-	*-	*-	*-	*-	*-	*-
!!!system-decoration: [(*)]
!!!RDF**kern: < = below
!!!RDF**kern: l = terminal long
!!!RDF**kern: > = above
!!!RDF**kern: < = below
!!!ENC: Filip Voros
!!!END: 2022-01-03
!!!EED: Andrzej Borzym
!!!EEV: 2022-01-06
